X: 7
T: No_105_Smoking_Song_(c).krn
N: Derived from No_105_Smoking_Song_(c).krn
%%abc-version 2.0
%%abcx-abcm2ps-target-version 5.9.1 (29 Sep 2008)
%%abc-creator hum2abc beta
%%abcx-conversion-date 2019/03/15 08:36:49
%%humdrum-veritas 1485972073
%%humdrum-veritas-data 3673469487
%%linebreak <none>
%%barnumbers 0
L: 1/8
M: 2/4
%%staves {1 2}
V: 1 clef=bass
V: 2 clef=bass
K: E
[V:1] [K:clef=bass][M:2/4](3B,F,B,B,2 | 
[V:2] [K:clef=bass][M:2/4]G,,/G,,/G,,/G,,/ G,,/G,,/G,,/G,,/ | 
[V:1] (3B,F,B,!fermata!B,2 | 
[V:2] z4 | 
[V:1] B,2C2 | 
[V:2] z4 | 
[V:1] C3/G,/ G,3//F,//E, ||  
[V:2] z4 ||  
[V:1] [M:3/4]F,F, G,3//F,//E, G,3//F,//E, ||  
[V:2] [M:3/4]z6 ||  
[V:1] [M:2/4](3F,F,F, (3E,F,E, | 
[V:2] [M:2/4]z4 | 
[V:1] E,/E,3/E,2 | 
[V:2] z4 | 
[V:1] F,/E,E,/E,2 |]  
[V:2] z4 |]  



